Adwaita++/actions/22/object-unlocked.svg

<svg height="22" viewBox="0 0 22 22" width="22" xmlns="http://www.w3.org/2000/svg">
  <path d="m8 0c-2.195 0-3.9666 1.7884-4 4v1h2v-1c0-1.108.892-2 2-2s2 .892 2 2v4h-7c-.554 0-1 .446-1 1v6c0 .554.446 1 1 1h10c.554 0 1-.446 1-1v-6c0-.554-.446-1-1-1h-1v-3.9375c0-2.24-1.784-4.0625-4-4.0625z" fill="#444" transform="translate(3 3)"/>
</svg>

<svg xmlns="http://www.w3.org/2000/svg" width="22" height="22" viewBox="0 0 22 22">
 <defs>
  <style id="current-color-scheme" type="text/css">
   .ColorScheme-Text { color:#444444; } .ColorScheme-Highlight { color:#4285f4; }
  </style>
 </defs>
 <path style="fill:currentColor" class="ColorScheme-Text" d="M 8 0 C 5.805 0 4.0334 1.7884 4 4 L 4 5 L 6 5 L 6 4 C 6 2.892 6.892 2 8 2 C 9.108 2 10 2.892 10 4 L 10 8 L 3 8 C 2.446 8 2 8.446 2 9 L 2 15 C 2 15.554 2.446 16 3 16 L 13 16 C 13.554 16 14 15.554 14 15 L 14 9 C 14 8.446 13.554 8 13 8 L 12 8 L 12 4.0625 C 12 1.8225 10.216 0 8 0 z" transform="translate(3 3)"/>
</svg>
